packages/icons/svg/Product_List_Standard_48px.svg

<svg xmlns="http://www.w3.org/2000/svg" viewBox="0 0 48 48"><path d="M36 7H12a2 2 0 00-2 2v30a2 2 0 002 2h24a2 2 0 002-2V9a2 2 0 00-2-2zm-1 31H13V10h22z"/><path d="M17 18h14a1 1 0 000-2H17a1 1 0 000 2zM17 25h8.54a1 1 0 000-2H17a1 1 0 000 2zM31 23h-1.83a1 1 0 000 2H31a1 1 0 000-2zM17 32h8.54a1 1 0 000-2H17a1 1 0 000 2zM31 30h-1.83a1 1 0 000 2H31a1 1 0 000-2z"/></svg>

<svg xmlns="http://www.w3.org/2000/svg" viewBox="0 0 48 48"><defs></defs><g id="Icon"><path  d="M36,7H12a2,2,0,0,0-2,2V39a2,2,0,0,0,2,2H36a2,2,0,0,0,2-2V9A2,2,0,0,0,36,7ZM35,38H13V10H35Z"/><path  d="M17,18H31a1,1,0,0,0,0-2H17a1,1,0,0,0,0,2Z"/><path  d="M17,25h8.54a1,1,0,0,0,0-2H17a1,1,0,0,0,0,2Z"/><path  d="M31,23H29.17a1,1,0,0,0,0,2H31a1,1,0,0,0,0-2Z"/><path  d="M17,32h8.54a1,1,0,0,0,0-2H17a1,1,0,0,0,0,2Z"/><path  d="M31,30H29.17a1,1,0,0,0,0,2H31a1,1,0,0,0,0-2Z"/></g></svg>
